X:1
T:Abissi di spavendo
T:Abissi di spavento
T:Giovanni Pietro Biandra
T:Source : Madrigaletti a 1, 2 e 3 voci. Libro primo---Venezia---B.Magni (Gardano)---1626. Editor : André Vierendeels (08/03/15).
T:Notes : Original Clefs : F4, F4 Figures in BC are notated in original print 
C:Giovanni Pietro Biandra
%%score 1 2
L:1/8
Q:1/4=76
M:4/4
K:C
V:1 bass nm="Basso" snm="B"
V:2 bass nm="BC" snm="BC"
V:1
 A,4 G,F,E,D, | C,/D,/E,/D,/ C,/B,,/C,/D,/ E,/D,/E,/F,/ G,/F,/G,/E,/ | F,4 C,4 | %3
w: A- bis- si di spa-|ven- * * * * * * * * * * * * * * *|* t'a|
 C,2 B,,2 A,,B,, C,B,, | A,,B,,/A,,/ G,,A,,/G,,/ F,,3 G,, | E,,8 | z A,,A,,A,, A,,2 C,2 | %7
w: tre ca- ver- * * *||ne,|spe- lon- ch'os- cu- re'af-|
 C,C, C,4 B,,2 | C,4 C,4 | z2 D,D, G,2 G,F, | E,E,E,E, A,2 A,G, | %11
w: fu- mie- a- te|grot- te,|do- ve vi- ve la|mor- te, do- ve vi- va la|
 ^F,/G,/A,/G,/ F,/G,/E,/F,/ D,/E,/F,/E,/ D,/E,/C,/D,/ | %12
w: mor- * * * * * * * * * * * * * * *|
 B,,/C,/D,/C,/ D,/G,,/A,,/B,,/ C,/D,/C,/D,/ E,/F,/G,/A,/ | B,/C/G,/E,/ F,/E,/F,/G,/ D,4 | C,8 | %15
w: ||te|
 z2 F,G, A,4- | A,2 E,E, E,4 | E,2 G,2 G,2 F,2 | A,3 ^G, A,4 | z4 G,4- | G,4 F,4- | F,4 E,4 | %22
w: O _ _|_ ve'hà rid- dor-|to l'i- ra- to|Rè del Ciel|le|_ pe-|* n'e-|
 D,/E,/F,/G,/ E,/F,/G,/A,/ F,/G,/A,/B,/ G,/A,/B,/C/ | A,/B,/G,/A,/ F,/G,/E,/F,/ D,4 | C,8 | %25
w: ter- * * * * * * * * * * * * * * *||ne,|
 z2 A,4 ^C,C, | ^C,3 C, D,E,F,G, | E,4 E,4 | z2 A,2 G,F,F,E, | G,4 A,4- | %30
w: val- li di|pian- to'e'ho- ren- do fos- s'in-|er- me,|al- ber- go de- 'hor-|ro- ri'e|
 A,2 F,E, D,/E,/F,/E,/ D,/C,/B,,/A,,/ | B,,4 A,,4 | z A,A,B, C3 F, | F,F, F,4 E,2 | F,4 F,4 | %35
w: _ del- la not- * * * * * * *|* te,|do- ve dal Ciel l'e-|ter- ni leg- gi|rot- te,|
 z2 A,2 G,2 F,2 | E,2 D,2 C,2 B,,2 | A,,4 z2 D,2 | E,D, E,F, G,E, F,G, | A,C B,A, B,A, B,^G, | %40
w: ca- der pec-|can- do le vir-|tu su-|per- * * * * * * *||
 A,8 | z2 A,,2 A,,4 | z2 D,D, D,3 C, | E,4 A,F, G,A, | _B,A, B,G, A,/G,/A,/F,/ G,/E,/F,/D,/ | %45
w: ne,|cen- tri|do- ve bol- l'og-|n'hor l'i- * * *|ra _ del _ Cie _ _ _ _ _ _ _|
 A,/F,/G,/E,/ F,/D,/E,/C,/ D,/B,,/C,/A,,/ _B,,/G,,/A,, | D,4 z2 G,F, | E,2 F,3 F, G,2- | %48
w: _ _ _ _ _ _ _ _ _ _ _ _ _ _ _|lo, do- ve|ro- de d'o- var-|
 G,G, A,4 A,2 | TA,8 | G,4 z2 _B,2- | B,2 A,4 G,2- | G,2 F,4 E,2- | E,2 D,4 E,2- | E,2 F,F, E,4 | %55
w: * d'e, do- ve'ag-|ghiac-|ca cru-|* do ver-|* me'as- pu-|* ro foc-|cor- ri- do ge-|
 D,8 | z2 G,G, G,2 F,E, | A,2 F,F, F,2 E,D, | G,3 E, D,3 D, | C,4 C,4 | z2 A,4 A,2- | %61
w: lo,|spa- ven- ta- to'il mio|cor, spa- ven- ta- to'il mio|cor tal che non|fac- cia,|piu scher-|
 A,2 A,2 A,3 ^G, | A,_B, G,A, F,G, E,F, | D,/C,/D,/E,/ F,/D,/E,/F,/ G,/F,/G,/E,/ ^F,2 | G,8 | %65
w: * ni'al Rè ch'al|for- * mi- * da- * bil _|te- * * * * * * * * * * * *|lo,|
 z2 G,2 CB,A,G, | F,/G,/A,/G,/ F,/E,/D,/C,/ _B,,2 _B,2- | B,2 _B,4 A,2- | A,2 A,4 ^G,2 | %69
w: è'a lem- pio con fu-|ror _ _ _ _ _ _ _ _ mor-|* te mi-|* nac- *|
 A,4 z2 C,2- | C,2 C,4 B,,2 | B,,4 A,,4- | A,,8 |] %73
w: cia, mo-|* te mi-|nac- cia.|_|
V:2
 A,,4 B,,4 | C,8 | F,,8 | G,,4 A,,4- | A,,2 G,,2 F,,4 | E,,8 | A,,8 | F,,4 G,,4 | C,8 | G,,8 | %10
 C,4 ^C,4 | D,8 | G,,4 A,,4 | G,,2 F,,2 G,,4 | C,8 | F,,8 | A,,8 | C,2 B,,2 C,2 D,2 | %18
 ^C,2 E,2 A,,4 | C,8 |"^9         8" F,,8 |"^7          6" G,,8 | B,,2 C,2 D,2 E,2 | %23
 F,2 F,,2 G,,4 | C,8 | A,,8 | A,,4 _B,,4 | A,,8 | F,,8 |"^5           6" C,8 | D,4 D,,2 F,,2 | %31
 E,,4 A,,4 | D,4 A,,4 | _B,,4 C,4 | F,,8 | F,,4 G,,4 | A,,4 A,,4 | A,,4 D,4 | C,8 | A,,4 E,4 | %40
 A,,8 | D,,8 | D,,8 | A,,8 | G,,4 D,4 | A,,8 | D,4 G,,4 |"^5  6""^5   6" A,,4 _B,,4 | %48
"^5    6" C,4 D,4- | D,2 C,2 D,4 |"^b" G,,4 G,,4 | C,8 | C,8 |"^5   6" D,4 G,,4 | A,,8 | D,8 | %56
 G,,4 C,4 | F,,4 _B,,4 | G,,8 | C,8 | F,4 E,2 D,2 | C,2 D,2 E,4 | F,2 E,2 D,2 C,2 | %63
 G,,2 D,2 C,2 D,2 | G,,8 | C,8 | D,4 _B,,4 | C,2 D,2 _E,2 C,2 | D,2 F,2 D,2 E,2 | A,,4 F,,4 | %70
 E,,4 D,,4 | E,,4 A,,4- | A,,8 |] %73

